X:1
T:On a dream
T:On a dream
T:Joseph Baildon (c.1727-1774)
T:www.sangerforum.no
T:www.sangerforum.no
T:www.sangerforum.no
C:Joseph Baildon (c.1727-1774)
Z:www.sangerforum.no
%%score [ 1 2 3 4 ]
L:1/8
Q:1/4=70
M:4/4
K:G
V:1 treble nm="I"
V:2 treble nm="II"
V:3 treble nm="III"
V:4 treble nm="IV"
V:1
|: G2 B B d2 z G | F2 E2 D2 z2 | G2 A B c2 z2 | A2 B c d2 z2 | B2 c d e3 d | c2 B2 A2 z2 | %6
w: "When is it best?" said|John to Joan,|"When is it best,|when is it best,|when is it best?" said|John to Joan,|
 F2 G A B2 z2 | ^G2 A B c2 z2 | A2 B c d2 (cB) | A2 d2 B3 B :| %10
w: "When is it best,|when is it best,|when is it best?" said _|John to Joan, "At|
V:2
|: B3 G A2 d2 | d3 ^c d d d =c | B G F G A3 G | F F G A B3 d | d2 (cB) G2 G2 | F3 G D F F G | %6
w: night, at mor- ning,|or at noon, at night, at|mor- ning or at noon, at|mor- ning, or at noon, at|night, at _ mor- ning,|or at noon, at night, at|
 A F z2 z D G2 | z4 z E A2 | z F G A B2 (AG) | (FG) (AF) G3 G :| %10
w: mor- ning, at noon,|at noon,|at night, at mor- ning, _|or _ at _ noon?" "Why,|
V:3
|: D2 z D (DE) (FG) | A2 A,2 D F G A | B2 z2 z E A2 | z4 z F G2 | z G A B c3 B | A2 G2 F D D E | %6
w: faith," wuoth Joan, _ "to _|tell thee right, I like it|noon, and night,|and night,|I like it noon, I|like it night, I like it|
 F D E F G d B G | E E F ^G A3 =G | (F D2) F G2 e2 | d3 A B4 :| %10
w: mor- ning, noon and night, I like it|mor- ning, noon and night, to|tell _ thee right, to|tell thee right,|
V:4
|: z d B G (FG) (AB) | A3 G F D E F | G2 D2 z A, B, C | D2 z2 z B, C D | G =F E D C2 G2 | %5
w: I like it mor- * ning, _|noon and night, I like it|mor- ning, I like it|noon, I like it|mor- ning, noon and night, and|
 D4 z d c B | A c B A G2 B,2 | E D C B, A, B, C A, | (DC) (B,A,) G,2 C2 | D3 D G4 :| %10
w: night, Why, faith," quoth|Joan, "to tell thee right, Why|faith," quoth Joan, "to tell thee right, I|like _ it _ mor- ning,|noon and night."|

